X: 9681
T: Dear Irish Boy, The
R: waltz
M: 3/4
K: Edorian
EG|{A}G3-G2{A}G|FE{A}FB3-|B3-B2A|FE{A}E4|{FG}F4{A}GF|E/{A}E/D3-D2-|D4z2|
z4EF|G{A}G3-G2-|G{A}GFE{G}FB-|B-~B-B4|AFE{A}E3-|E{FG}F3-F2|{A}GFE4-|E2z4|
z4EF|G{A}G3-G2|{A}GFE{G}FB2-|B3-B2A|FE{A}E4|~F-F4{A}G|FE/{A}E/D4-|D6|z6|
EF|G{A}G4{c}A-|A{c}Bd{a}e3-|e2f{a}f3-|fe/d/B4-|B6|z3A2G-|G6-|GEF/G/F{A}F2-|
F4{EF}ED-|D3-D2D|E6-|E6|z6|z4B2|e/{a}e/B3-B2-|Bf-e~f3|edB4-|B3AG{Bc}d-|
d4{a}dF|G//F//E/F//E//D/D4-|D4z2|z3f2Jg|{ef}eB4{fg}f-|f3{a}gf {ef}e|B6|
zA{Bc}B{ef}e2d|Jf/g/f4{a}g-|gf{gf}e4-|e6-|e2z4|z3E/e/f{a}g-|
g{c'}a4g/f/|e2fB3-|B4A/G/ {Bc}d-|d4F2-|F{A}FE{A}ED2-|D6-|D4z2|
z4EF|G{A}G3-G2|{c}A{c}B{e}d{a}e3-|e2f{a}f3-|f2edB2-|B6|
z3z2A-|AG3-G2-|!>!G3-E/F/ G F/{A}F/|F4E/{A}E/D-|D6|E6-|E6-|E3z3|

